X:535
T: Mary Girl
S: "Music from Ireland 3" (Bulmer & Sharpley)
N: mm 2 and 5 corrected from [D^c d/c/d]
Z: B.Black
R: polka
M: 2/4
L: 1/8
K: G
DB B/A/B|Dc c/B/c|f/e/d/c/ A/F/D/F/|GF ED|
DB B/A/B|Dc c/B/c|f/e/d/c/ A/F/D/F/|AG G2 :|
g/d/B/d/ g>f|fe e2|f/d/A/d/ f>e|ed d2|
g/d/B/d/ g>f|fe e2|d/g/f/e/ d/c/B/A/|GF G2 :|
